assets/images/logo-uni-uab.svg

<svg fill="none" height="29" viewBox="0 0 87 29" width="87" xmlns="http://www.w3.org/2000/svg" xmlns:xlink="http://www.w3.org/1999/xlink"><clipPath id="a"><path d="m0 0h87v29h-87z"/></clipPath><g clip-path="url(#a)"><path d="m10.4684 11.0469h-3.70278v7.4438h3.70278z" stroke="#001b3c" stroke-miterlimit="10" stroke-width="1.51568"/><path d="m20.3356 11.0469h-3.7028v7.4438h3.7028z" stroke="#001b3c" stroke-miterlimit="10" stroke-width="1.51568"/><path d="m13.5785 8.81445-2.0433 2.23265v7.4439h4.0312v-7.4439z" stroke="#001b3c" stroke-miterlimit="10" stroke-width="1.51568"/><path d="m4.25837 23.5617-2.21358 1.391c-.18518.1156-.2987.3257-.2987.5513v1.9661c0 .4068.31856.6966.66479.698h2.61231c.14686 0 .26605-.1248.26605-.2785v-1.4085l1.25366-.7882c-.83932-.6105-1.60627-1.3268-2.28453-2.1319z" stroke="#001b3c" stroke-miterlimit="10" stroke-width="1.51568"/><path d="m25.0233 24.9526-2.1923-1.3796c-.6796.8044-1.448 1.5199-2.288 2.1297l1.2359.7797v1.4086c0 .1537.1192.2785.266.2785h2.6124c.3469-.0015.6647-.2919.6647-.698v-1.9662c0-.2263-.1135-.4356-.2987-.5512z" stroke="#001b3c" stroke-miterlimit="10" stroke-width="1.51568"/><path d="m13.5502.999512c-6.91673 0-12.54434 6.056468-12.54434 13.500388 0 7.4438 5.62761 13.5003 12.54434 13.5003 6.9167 0 12.5443-6.0565 12.5443-13.5003 0-7.44392-5.6269-13.500388-12.5443-13.500388z" stroke="#001b3c" stroke-miterlimit="10" stroke-width="1.51568"/><path d="m13.5519 24.818c-5.30198 0-9.60073-4.6197-9.60073-10.318 0-5.69839 4.29804-10.31812 9.60073-10.31812 5.3026 0 9.6007 4.61973 9.6007 10.31812 0 5.6983-4.2988 10.318-9.6007 10.318z" stroke="#001b3c" stroke-miterlimit="10" stroke-width="1.51568"/><g fill="#001b3c"><path d="m64.582 7.41089.0084.00454v-.00454z"/><path d="m43.2031 7.41089.0084.00454v-.00454z"/><path d="m41.5391 7.47565v.71907h1.0933v-.88686c-.3938.03384-.7741.0987-1.0933.16779z"/><path d="m62.7773 7.47565v.71907h1.0934v-.88686c-.3931.03384-.7741.0987-1.0934.16779z"/><path d="m32.0258 13.888c-1.9943 0-2.6215-1.0053-2.6215-2.5647v-3.84845h1.0933v3.71735c0 1.1971.4151 1.8506 1.5282 1.8506 1.1132 0 1.4977-.6733 1.4977-1.8506v-3.71735h1.1033v3.83795c0 1.5791-.8301 2.5745-2.6017 2.5745"/><path d="m39.2302 13.7675v-3.1379c0-.94535-.3441-1.36763-1.2451-1.36763-.5775 0-1.1139.16074-1.2955.23124v4.27429h-1.0529v-4.84815c.2632-.09023 1.3161-.42228 2.3789-.42228 1.4474 0 2.2675.54354 2.2675 1.68983v3.5806z"/><path d="m46.549 13.7675h-1.3863l-1.8326-5.14982h1.1132l1.4381 4.41602 1.4267-4.41602h1.0628z"/><path d="m51.1154 9.20134c-.84 0-1.2856.54284-1.3054 1.54886h2.6215c-.0206-.89534-.4555-1.54886-1.3161-1.54886zm-1.3054 2.19246c.0205 1.1668.4959 1.7702 1.6907 1.7702.7087 0 1.5587-.3116 1.7006-.4526v.7847c-.1213.0902-.8911.3919-2.0249.3919-1.8524 0-2.4186-.9552-2.4186-2.8262 0-1.66941.8805-2.56473 2.3583-2.56473 1.4779 0 2.3385.92564 2.3385 2.56473v.332z"/><path d="m56.8249 9.24155c-.547 0-1.1337.18118-1.2955.22137v4.30528h-1.0528v-4.85798c.1823-.09095 1.2749-.41242 2.2164-.41242.0709 0 .5775.01058.6577.05006v.74445c-.1008-.01974-.4044-.05005-.5265-.05005"/><path d="m59.6792 13.888c-1.0933 0-1.7914-.2714-1.9837-.3927v-.7846c.3441.2312 1.1337.4526 1.7311.4526.9309 0 1.2955-.332 1.2955-.7445 0-.3419-.3441-.5534-.779-.724-1.0628-.4124-2.2576-.6634-2.2576-1.72012 0-.95525.9011-1.47834 2.0547-1.47834 1.0323 0 1.7716.3116 1.873.3821v.76419c-.2731-.15086-.9315-.41241-1.6403-.41241-.911 0-1.2246.3116-1.2246.66339 0 .32149.3541.51319.7897.68379.8599.3427 2.2774.6641 2.2774 1.68s-.6988 1.6292-2.1362 1.6292"/><path d="m74.4496 11.2028h-.85c-1.1536 0-1.8319.2517-1.8319 1.0257 0 .6134.5059.9651 1.2757.9651.6882 0 1.2756-.1205 1.4069-.1811v-1.8104h-.0007zm-1.4878 2.6852c-1.4573 0-2.247-.5738-2.247-1.6292 0-1.2372 1.2452-1.6898 2.5308-1.6898h1.204v-.3525c0-.64363-.4151-1.00529-1.5077-1.00529-.7591 0-1.6602.35179-1.812.42229v-.75433c.1724-.06063 1.1032-.3821 2.0646-.3821 1.5793 0 2.2874.51322 2.2874 1.77023v3.2788c-.2328.1008-1.0934.3419-2.5201.3419z"/><path d="m42.6115 8.61768h-1.0529v5.14982h1.0529z"/><path d="m68.7304 12.9025c-.1419.0606-.6478.2418-1.3062.2418-.9819 0-1.4275-.6035-1.4275-2.0825 0-1.20693.4754-1.81039 1.4374-1.81039.5158 0 1.0834.17131 1.2956.27141v3.37968zm0-4.08325c-.1419-.07049-.8202-.32147-1.5793-.32147-1.336 0-2.237.87488-2.237 2.56472 0 1.9013.6477 2.8263 2.5002 2.8263 1.0727 0 1.9738-.2616 2.3682-.4329v-6.38852c-.3675.02397-.7336.07967-1.0528.1417v1.61017z"/><path d="m63.8497 8.61768h-1.0528v5.14982h1.0528z"/><path d="m80.3202 12.9025c-.1419.0606-.6478.2418-1.3054.2418-.982 0-1.4275-.6035-1.4275-2.0825 0-1.20693.4753-1.81039 1.4374-1.81039.5158 0 1.0834.17131 1.2955.27141zm0-4.08325c-.1419-.07049-.8202-.32147-1.5793-.32147-1.336 0-2.237.87488-2.237 2.56472 0 1.9013.6478 2.8263 2.5002 2.8263 1.0728 0 1.9738-.2616 2.3683-.4329v-6.38852c-.3675.02397-.7336.07967-1.0529.1417v1.61017z"/><path d="m53.1731 15.0216-.552.8918h.779l.8365-1.0589c-.3824.0359-.7549.0994-1.0642.1671"/><path d="m66.0382 18.7586h-1.165v2.2503h1.1841c.9096 0 1.4211-.2919 1.4211-1.111 0-.7628-.4831-1.1393-1.4402-1.1393zm-.0092-2.6824h-1.1558v1.9676h1.1841c.7102 0 1.2885-.3109 1.2885-.9976 0-.6866-.4832-.97-1.3168-.97zm.1986 5.6673h-2.3682v-6.4012h2.2455c1.4118 0 2.2639.5365 2.2639 1.6003 0 .7719-.5299 1.3084-1.2976 1.4403.9188.1318 1.4594.6774 1.4594 1.6193 0 1.1956-.8053 1.7413-2.3023 1.7413"/><path d="m71.6969 17.1777c-.84 0-1.2856.5428-1.3054 1.5488h2.6215c-.0206-.8953-.4555-1.5488-1.3161-1.5488zm-1.3054 2.1924c.0198 1.1668.4959 1.7702 1.69 1.7702.7087 0 1.5587-.3116 1.7006-.4525v.7846c-.1213.0902-.8911.392-2.0249.392-1.8517 0-2.4193-.9553-2.4193-2.8263 0-1.6694.8812-2.5647 2.3583-2.5647s2.3377.9256 2.3377 2.5647v.332h-3.6438z"/><path d="m82.0327 17.2277c-1.0423 0-1.4474.5428-1.4474 1.8104 0 1.5291.4051 2.0825 1.4474 2.0825 1.0422 0 1.4572-.5936 1.4572-2.0825 0-1.257-.4249-1.8104-1.4572-1.8104zm0 4.6367c-1.9738 0-2.5307-.9052-2.5307-2.8263 0-1.8203.901-2.5647 2.5307-2.5647 1.6296 0 2.5506.7141 2.5506 2.5647 0 2.1523-.8904 2.8263-2.5506 2.8263z"/><path d="m85.9887 18.3838h.1256c.1319 0 .2575-.0416.2575-.1551 0-.0952-.066-.1664-.2398-.1664-.0717 0-.1135.0056-.1433.012zm0 .5597h-.1859v-.994c.1022-.0176.21-.0296.3476-.0296.1675 0 .2519.0296.3115.0775.0603.0416.1022.1192.1022.2143 0 .1185-.0901.1967-.1916.232v.012c.0837.0359.132.1135.1618.2446.0298.1487.0539.208.078.2439h-.1916c-.0305-.0359-.0539-.1255-.0844-.2559-.0234-.1128-.0894-.1607-.227-.1607h-.1199v.4166h-.0007zm.1674-1.3035c-.4314 0-.7605.3511-.7605.7797s.3292.7854.7726.7854c.4257.0056.7485-.3455.7485-.7797 0-.4343-.3228-.7861-.7549-.7861h-.0057zm.0121-.1664c.5385 0 .9578.4167.9578.9468 0 .5302-.4193.9581-.9642.9581s-.9763-.4167-.9763-.9581.4314-.9468.9763-.9468z"/><path d="m77.3867 21.7429h1.0529v-6.5486c-.3682.024-.7336.0797-1.0529.1417v6.4062z"/><path d="m75.0586 21.7429h1.0529v-6.5486c-.3675.024-.7336.0797-1.0529.1417v6.4062z"/><path d="m39.031 21.7428v-3.1386c0-.9453-.3441-1.3676-1.2451-1.3676-.5768 0-1.1132.1607-1.2955.2312v4.2743h-1.0529v-4.8481c.2632-.0903 1.3161-.4223 2.3789-.4223 1.4473 0 2.2675.5435 2.2675 1.6898v3.5806h-1.0529z"/><path d="m49.6414 17.2171c-.5471 0-1.1338.1812-1.2956.2214v4.3046h-1.0528v-4.858c.1823-.091 1.2749-.4124 2.2164-.4124.0709 0 .5775.0105.6577.05v.7445c-.1008-.0198-.4051-.0501-.5265-.0501"/><path d="m52.9716 17.1777c-.84 0-1.2856.5428-1.3055 1.5488h2.6216c-.0206-.8953-.4555-1.5488-1.3161-1.5488zm-1.3055 2.1924c.0206 1.1668.496 1.7702 1.69 1.7702.7088 0 1.5588-.3116 1.7007-.4525v.7846c-.1214.0902-.8911.392-2.0242.392-1.8524 0-2.4193-.9553-2.4193-2.8263 0-1.6694.8812-2.5647 2.3583-2.5647s2.3384.9256 2.3384 2.5647v.332z"/><path d="m58.0022 21.8643c-1.0933 0-1.7915-.2714-1.9837-.3926v-.7847c.3441.2313 1.1337.4526 1.7311.4526.9315 0 1.2955-.332 1.2955-.7444 0-.342-.3441-.5535-.7797-.7241-1.0628-.4131-2.2576-.664-2.2576-1.7201 0-.956.9011-1.4783 2.0547-1.4783 1.0323 0 1.7715.3116 1.8723.3821v.7642c-.2732-.1509-.9316-.4125-1.6396-.4125-.911 0-1.2253.3116-1.2253.6634 0 .3215.3547.5132.7897.6839.8606.3426 2.2774.664 2.2774 1.6799s-.6988 1.6292-2.1355 1.6292"/><path d="m30.6702 19.0477 1.0415-3.379 1.0302 3.379zm2.8939 2.6958h1.1742l-2.298-6.839h-1.387l-2.3385 6.839h1.1239l.5477-1.7751h2.6357l.5413 1.7751z"/><path d="m44.9784 20.9477c-.1419.0606-.6477.2418-1.3054.2418-.982 0-1.4275-.6035-1.4275-2.0825 0-1.207.4753-1.8104 1.4374-1.8104.5158 0 1.0834.1713 1.2955.2714zm0-4.0833c-.1419-.0705-.8201-.3214-1.5793-.3214-1.3359 0-2.237.8748-2.237 2.5647 0 1.9013.6478 2.8262 2.5002 2.8262 1.0728 0 1.9738-.2615 2.3683-.4321v-6.3893c-.3675.024-.7336.0797-1.0529.1418v1.6101z"/></g></g></svg>

<svg width="87" height="29" viewBox="0 0 87 29" fill="none" xmlns="http://www.w3.org/2000/svg">
<g clip-path="url(#clip0_2418_7380)">
<path d="M10.4684 11.0469H6.76562V18.4907H10.4684V11.0469Z" stroke="#001B3C" stroke-width="1.51568" stroke-miterlimit="10"/>
<path d="M20.3356 11.0469H16.6328V18.4907H20.3356V11.0469Z" stroke="#001B3C" stroke-width="1.51568" stroke-miterlimit="10"/>
<path d="M13.5785 8.81445L11.5352 11.0471V18.491H15.5664V11.0471L13.5785 8.81445Z" stroke="#001B3C" stroke-width="1.51568" stroke-miterlimit="10"/>
<path d="M4.25837 23.5617L2.04479 24.9527C1.85961 25.0683 1.74609 25.2784 1.74609 25.504V27.4701C1.74609 27.8769 2.06465 28.1667 2.41088 28.1681H5.02319C5.17005 28.1681 5.28924 28.0433 5.28924 27.8896V26.4811L6.5429 25.6929C5.70358 25.0824 4.93663 24.3661 4.25837 23.561V23.5617Z" stroke="#001B3C" stroke-width="1.51568" stroke-miterlimit="10"/>
<path d="M25.0233 24.9526L22.831 23.573C22.1514 24.3774 21.383 25.0929 20.543 25.7027L21.7789 26.4824V27.891C21.7789 28.0447 21.8981 28.1695 22.0449 28.1695H24.6573C25.0042 28.168 25.322 27.8776 25.322 27.4715V25.5053C25.322 25.279 25.2085 25.0697 25.0233 24.9541V24.9526Z" stroke="#001B3C" stroke-width="1.51568" stroke-miterlimit="10"/>
<path d="M13.5502 0.999512C6.63347 0.999512 1.00586 7.05598 1.00586 14.4999C1.00586 21.9437 6.63347 28.0002 13.5502 28.0002C20.4669 28.0002 26.0945 21.9437 26.0945 14.4999C26.0945 7.05598 20.4676 0.999512 13.5502 0.999512Z" stroke="#001B3C" stroke-width="1.51568" stroke-miterlimit="10"/>
<path d="M13.5519 24.818C8.24992 24.818 3.95117 20.1983 3.95117 14.5C3.95117 8.80161 8.24921 4.18188 13.5519 4.18188C18.8545 4.18188 23.1526 8.80161 23.1526 14.5C23.1526 20.1983 18.8538 24.818 13.5519 24.818Z" stroke="#001B3C" stroke-width="1.51568" stroke-miterlimit="10"/>
<path d="M64.582 7.41089L64.5904 7.41543V7.41089H64.582Z" fill="#001B3C"/>
<path d="M43.2031 7.41089L43.2115 7.41543V7.41089H43.2031Z" fill="#001B3C"/>
<path d="M41.5391 7.47565V8.19472H42.6324V7.30786C42.2386 7.3417 41.8583 7.40656 41.5391 7.47565Z" fill="#001B3C"/>
<path d="M62.7773 7.47565V8.19472H63.8707V7.30786C63.4776 7.3417 63.0966 7.40656 62.7773 7.47565Z" fill="#001B3C"/>
<path d="M32.0258 13.888C30.0315 13.888 29.4043 12.8827 29.4043 11.3233V7.47485H30.4976V11.1922C30.4976 12.3893 30.9127 13.0428 32.0258 13.0428C33.139 13.0428 33.5235 12.3695 33.5235 11.1922V7.47485H34.6268V11.3128C34.6268 12.8919 33.7967 13.8873 32.0251 13.8873" fill="#001B3C"/>
<path d="M39.2302 13.7675V10.6296C39.2302 9.68425 38.8861 9.26197 37.9851 9.26197C37.4076 9.26197 36.8712 9.42271 36.6896 9.49321V13.7675H35.6367V8.91935C35.8999 8.82912 36.9528 8.49707 38.0156 8.49707C39.463 8.49707 40.2831 9.04061 40.2831 10.1869V13.7675H39.2302Z" fill="#001B3C"/>
<path d="M46.549 13.7675H45.1627L43.3301 8.61768H44.4433L45.8814 13.0337L47.3081 8.61768H48.3709L46.549 13.7675Z" fill="#001B3C"/>
<path d="M51.1154 9.20134C50.2754 9.20134 49.8298 9.74418 49.81 10.7502H52.4315C52.4109 9.85486 51.976 9.20134 51.1154 9.20134ZM49.81 11.3938C49.8305 12.5606 50.3059 13.164 51.5007 13.164C52.2094 13.164 53.0594 12.8524 53.2013 12.7114V13.4961C53.08 13.5863 52.3102 13.888 51.1764 13.888C49.324 13.888 48.7578 12.9328 48.7578 11.0618C48.7578 9.39239 49.6383 8.49707 51.1161 8.49707C52.594 8.49707 53.4546 9.42271 53.4546 11.0618V11.3938H49.81Z" fill="#001B3C"/>
<path d="M56.8249 9.24155C56.2779 9.24155 55.6912 9.42273 55.5294 9.46292V13.7682H54.4766V8.91022C54.6589 8.81927 55.7515 8.4978 56.693 8.4978C56.7639 8.4978 57.2705 8.50838 57.3507 8.54786V9.29231C57.2499 9.27257 56.9463 9.24226 56.8242 9.24226" fill="#001B3C"/>
<path d="M59.6792 13.888C58.5859 13.888 57.8878 13.6166 57.6955 13.4953V12.7107C58.0396 12.9419 58.8292 13.1633 59.4266 13.1633C60.3575 13.1633 60.7221 12.8313 60.7221 12.4188C60.7221 12.0769 60.378 11.8654 59.9431 11.6948C58.8803 11.2824 57.6855 11.0314 57.6855 9.97468C57.6855 9.01943 58.5866 8.49634 59.7402 8.49634C60.7725 8.49634 61.5118 8.80794 61.6132 8.87844V9.64263C61.3401 9.49177 60.6817 9.23022 59.9729 9.23022C59.0619 9.23022 58.7483 9.54182 58.7483 9.89361C58.7483 10.2151 59.1024 10.4068 59.538 10.5774C60.3979 10.9201 61.8154 11.2415 61.8154 12.2574C61.8154 13.2733 61.1166 13.8866 59.6792 13.8866" fill="#001B3C"/>
<path d="M74.4496 11.2028H73.5996C72.446 11.2028 71.7677 11.4545 71.7677 12.2285C71.7677 12.8419 72.2736 13.1936 73.0434 13.1936C73.7316 13.1936 74.319 13.0731 74.4503 13.0125V11.2021H74.4496V11.2028ZM72.9618 13.888C71.5045 13.888 70.7148 13.3142 70.7148 12.2588C70.7148 11.0216 71.96 10.569 73.2456 10.569H74.4496V10.2165C74.4496 9.57287 74.0345 9.21121 72.9419 9.21121C72.1828 9.21121 71.2817 9.563 71.1299 9.6335V8.87917C71.3023 8.81854 72.2331 8.49707 73.1945 8.49707C74.7738 8.49707 75.4819 9.01029 75.4819 10.2673V13.5461C75.2491 13.6469 74.3885 13.888 72.9618 13.888Z" fill="#001B3C"/>
<path d="M42.6115 8.61768H41.5586V13.7675H42.6115V8.61768Z" fill="#001B3C"/>
<path d="M68.7304 12.9025C68.5885 12.9631 68.0826 13.1443 67.4242 13.1443C66.4423 13.1443 65.9967 12.5408 65.9967 11.0618C65.9967 9.85487 66.4721 9.25141 67.4341 9.25141C67.9499 9.25141 68.5175 9.42272 68.7297 9.52282V12.9025H68.7304ZM68.7304 8.81925C68.5885 8.74876 67.9102 8.49778 67.1511 8.49778C65.8151 8.49778 64.9141 9.37266 64.9141 11.0625C64.9141 12.9638 65.5618 13.8888 67.4143 13.8888C68.487 13.8888 69.3881 13.6272 69.7825 13.4559V7.06738C69.415 7.09135 69.0489 7.14705 68.7297 7.20908V8.81925H68.7304Z" fill="#001B3C"/>
<path d="M63.8497 8.61768H62.7969V13.7675H63.8497V8.61768Z" fill="#001B3C"/>
<path d="M80.3202 12.9025C80.1783 12.9631 79.6724 13.1443 79.0148 13.1443C78.0328 13.1443 77.5873 12.5408 77.5873 11.0618C77.5873 9.85487 78.0626 9.25141 79.0247 9.25141C79.5405 9.25141 80.1081 9.42272 80.3202 9.52282V12.9025ZM80.3202 8.81925C80.1783 8.74876 79.5 8.49778 78.7409 8.49778C77.4049 8.49778 76.5039 9.37266 76.5039 11.0625C76.5039 12.9638 77.1517 13.8888 79.0041 13.8888C80.0769 13.8888 80.9779 13.6272 81.3724 13.4559V7.06738C81.0049 7.09135 80.6388 7.14705 80.3195 7.20908V8.81925H80.3202Z" fill="#001B3C"/>
<path d="M53.1731 15.0216L52.6211 15.9134H53.4001L54.2366 14.8545C53.8542 14.8904 53.4817 14.9539 53.1724 15.0216" fill="#001B3C"/>
<path d="M66.0382 18.7586H64.8732V21.0089H66.0573C66.9669 21.0089 67.4784 20.717 67.4784 19.8979C67.4784 19.1351 66.9953 18.7586 66.0382 18.7586ZM66.029 16.0762H64.8732V18.0438H66.0573C66.7675 18.0438 67.3458 17.7329 67.3458 17.0462C67.3458 16.3596 66.8626 16.0762 66.029 16.0762ZM66.2276 21.7435H63.8594V15.3423H66.1049C67.5167 15.3423 68.3688 15.8788 68.3688 16.9426C68.3688 17.7145 67.8389 18.251 67.0712 18.3829C67.99 18.5147 68.5306 19.0603 68.5306 20.0022C68.5306 21.1978 67.7253 21.7435 66.2283 21.7435" fill="#001B3C"/>
<path d="M71.6969 17.1777C70.8569 17.1777 70.4113 17.7205 70.3915 18.7265H73.013C72.9924 17.8312 72.5575 17.1777 71.6969 17.1777ZM70.3915 19.3701C70.4113 20.5369 70.8874 21.1403 72.0815 21.1403C72.7902 21.1403 73.6402 20.8287 73.7821 20.6878V21.4724C73.6608 21.5626 72.891 21.8644 71.7572 21.8644C69.9055 21.8644 69.3379 20.9091 69.3379 19.0381C69.3379 17.3687 70.2191 16.4734 71.6962 16.4734C73.1733 16.4734 74.0339 17.399 74.0339 19.0381V19.3701H70.3901H70.3915Z" fill="#001B3C"/>
<path d="M82.0327 17.2277C80.9904 17.2277 80.5853 17.7705 80.5853 19.0381C80.5853 20.5672 80.9904 21.1206 82.0327 21.1206C83.0749 21.1206 83.4899 20.527 83.4899 19.0381C83.4899 17.7811 83.065 17.2277 82.0327 17.2277ZM82.0327 21.8644C80.0589 21.8644 79.502 20.9592 79.502 19.0381C79.502 17.2178 80.403 16.4734 82.0327 16.4734C83.6623 16.4734 84.5833 17.1875 84.5833 19.0381C84.5833 21.1904 83.6929 21.8644 82.0327 21.8644Z" fill="#001B3C"/>
<path d="M85.9887 18.3838H86.1143C86.2462 18.3838 86.3718 18.3422 86.3718 18.2287C86.3718 18.1335 86.3058 18.0623 86.132 18.0623C86.0603 18.0623 86.0185 18.0679 85.9887 18.0743V18.3838ZM85.9887 18.9435H85.8028V17.9495C85.905 17.9319 86.0128 17.9199 86.1504 17.9199C86.3179 17.9199 86.4023 17.9495 86.4619 17.9974C86.5222 18.039 86.5641 18.1166 86.5641 18.2117C86.5641 18.3302 86.474 18.4084 86.3725 18.4437V18.4557C86.4562 18.4916 86.5045 18.5692 86.5343 18.7003C86.5641 18.849 86.5882 18.9083 86.6123 18.9442H86.4207C86.3902 18.9083 86.3668 18.8187 86.3363 18.6883C86.3129 18.5755 86.2469 18.5276 86.1093 18.5276H85.9894V18.9442H85.9887V18.9435ZM86.1561 17.64C85.7247 17.64 85.3956 17.9911 85.3956 18.4197C85.3956 18.8483 85.7248 19.2051 86.1682 19.2051C86.5939 19.2107 86.9167 18.8596 86.9167 18.4254C86.9167 17.9911 86.5939 17.6393 86.1618 17.6393H86.1561V17.64ZM86.1682 17.4736C86.7067 17.4736 87.126 17.8903 87.126 18.4204C87.126 18.9506 86.7067 19.3785 86.1618 19.3785C85.6169 19.3785 85.1855 18.9618 85.1855 18.4204C85.1855 17.879 85.6169 17.4736 86.1618 17.4736H86.1682Z" fill="#001B3C"/>
<path d="M77.3867 21.7429H78.4396V15.1943C78.0714 15.2183 77.706 15.274 77.3867 15.336V21.7422V21.7429Z" fill="#001B3C"/>
<path d="M75.0586 21.7429H76.1115V15.1943C75.744 15.2183 75.3779 15.274 75.0586 15.336V21.7422V21.7429Z" fill="#001B3C"/>
<path d="M39.031 21.7428V18.6042C39.031 17.6589 38.6869 17.2366 37.7859 17.2366C37.2091 17.2366 36.6727 17.3973 36.4904 17.4678V21.7421H35.4375V16.894C35.7007 16.8037 36.7536 16.4717 37.8164 16.4717C39.2637 16.4717 40.0839 17.0152 40.0839 18.1615V21.7421H39.031V21.7428Z" fill="#001B3C"/>
<path d="M49.6414 17.2171C49.0943 17.2171 48.5076 17.3983 48.3458 17.4385V21.7431H47.293V16.8851C47.4753 16.7941 48.5679 16.4727 49.5094 16.4727C49.5803 16.4727 50.0869 16.4832 50.1671 16.5227V17.2672C50.0663 17.2474 49.762 17.2171 49.6406 17.2171" fill="#001B3C"/>
<path d="M52.9716 17.1777C52.1316 17.1777 51.686 17.7205 51.6661 18.7265H54.2877C54.2671 17.8312 53.8322 17.1777 52.9716 17.1777ZM51.6661 19.3701C51.6867 20.5369 52.1621 21.1403 53.3561 21.1403C54.0649 21.1403 54.9149 20.8287 55.0568 20.6878V21.4724C54.9354 21.5626 54.1657 21.8644 53.0326 21.8644C51.1802 21.8644 50.6133 20.9091 50.6133 19.0381C50.6133 17.3687 51.4945 16.4734 52.9716 16.4734C54.4487 16.4734 55.31 17.399 55.31 19.0381V19.3701H51.6661Z" fill="#001B3C"/>
<path d="M58.0022 21.8643C56.9089 21.8643 56.2107 21.5929 56.0185 21.4717V20.687C56.3626 20.9183 57.1522 21.1396 57.7496 21.1396C58.6811 21.1396 59.0451 20.8076 59.0451 20.3952C59.0451 20.0532 58.701 19.8417 58.2654 19.6711C57.2026 19.258 56.0078 19.0071 56.0078 17.951C56.0078 16.995 56.9089 16.4727 58.0625 16.4727C59.0948 16.4727 59.834 16.7843 59.9348 16.8548V17.619C59.6616 17.4681 59.0032 17.2065 58.2952 17.2065C57.3842 17.2065 57.0699 17.5181 57.0699 17.8699C57.0699 18.1914 57.4246 18.3831 57.8596 18.5538C58.7202 18.8964 60.137 19.2178 60.137 20.2337C60.137 21.2496 59.4382 21.8629 58.0015 21.8629" fill="#001B3C"/>
<path d="M30.6702 19.0477L31.7117 15.6687L32.7419 19.0477H30.6702ZM33.5641 21.7435H34.7383L32.4403 14.9045H31.0533L28.7148 21.7435H29.8387L30.3864 19.9684H33.0221L33.5634 21.7435H33.5641Z" fill="#001B3C"/>
<path d="M44.9784 20.9477C44.8365 21.0083 44.3307 21.1895 43.673 21.1895C42.691 21.1895 42.2455 20.586 42.2455 19.107C42.2455 17.9 42.7208 17.2966 43.6829 17.2966C44.1987 17.2966 44.7663 17.4679 44.9784 17.568V20.9477ZM44.9784 16.8644C44.8365 16.7939 44.1583 16.543 43.3991 16.543C42.0632 16.543 41.1621 17.4178 41.1621 19.1077C41.1621 21.009 41.8099 21.9339 43.6623 21.9339C44.7351 21.9339 45.6361 21.6724 46.0306 21.5018V15.1125C45.6631 15.1365 45.297 15.1922 44.9777 15.2543V16.8644H44.9784Z" fill="#001B3C"/>
</g>
<defs>
<clipPath id="clip0_2418_7380">
<rect width="87" height="29" fill="white"/>
</clipPath>
</defs>
</svg>
